layouts/icon-pack/armor_ring.svg

<?xml version="1.0" encoding="UTF-8"?>
<svg width="1200pt" height="1200pt" version="1.1" viewBox="0 0 1200 1200" xmlns="http://www.w3.org/2000/svg">
 <g fill="#fff">
  <path d="m206.25 815.95c9.1211 2.6719 18.941 1.4375 27.121-3.4062 8.1797-4.8398 13.98-12.859 16.027-22.141 42.188-188.44 206.95-333.96 206.95-333.96s145.52-164.7 333.96-206.95c9.3203-2.0195 17.379-7.8281 22.246-16.031 4.8633-8.207 6.0938-18.062 3.3945-27.211-15.797-52.828-62.227-140.88-194.53-116.16 0 0-161.41 34.734-328.97 202.27s-202.27 328.97-202.27 328.97c-24.727 132.4 63.328 178.83 116.06 194.62z"/>
  <path d="m98.438 962.34c81.75 140.62 248.74 205.73 406.36 165.73 59.508-15.117 116.04-40.453 166.62-69.047 12.844-6.8438 25.195-14.18 35.93-20.906 3.8789-2.4297 6.7461-6.1836 8.0703-10.562 1.3242-4.3789 1.0195-9.0898-0.85937-13.262-1.8828-4.1758-5.207-7.5234-9.3672-9.4336-18.469-8.5078-48.938-27.516-70.031-52.406-74.062-86.719-63.938-164.65-51.703-213 3.2109-12.609-12.797-21.305-21.469-11.602-28.57 31.992-38.859 71.672-42.398 100.34-1.4727 12.508-6.3398 24.371-14.066 34.316-7.7305 9.9414-18.027 17.582-29.785 22.098-180.94 68.297-323.86 0.25781-386.18-39.984-4.1328-2.7461-9.1836-3.7461-14.051-2.7734-4.8633 0.96875-9.1484 3.832-11.91 7.9531-2.7578 4.1211-3.7734 9.1719-2.8203 14.039 6.9492 34.715 19.68 68.012 37.664 98.508z"/>
  <path d="m1038.1 707.23c6.7266-10.734 14.062-23.086 20.906-35.93 28.594-50.578 53.906-107.11 69.047-166.62 40.008-157.62-25.172-324.61-165.73-406.24-30.477-17.969-63.75-30.691-98.438-37.641-4.8672-0.95312-9.918 0.0625-14.039 2.8203-4.1211 2.7617-6.9844 7.0469-7.9531 11.91-0.97266 4.8672 0.027344 9.918 2.7734 14.051 40.242 62.32 108.28 205.24 39.984 386.18-4.5156 11.758-12.156 22.055-22.098 29.785-9.9453 7.7266-21.809 12.594-34.316 14.066-28.664 3.5391-68.344 13.828-100.34 42.398-9.7031 8.6719-1.0078 24.68 11.602 21.469 48.352-12.234 126.35-22.359 213 51.703 24.797 21.094 43.898 51.68 52.406 70.008 1.9336 4.1289 5.2891 7.418 9.4531 9.2695 4.1641 1.8555 8.8555 2.1406 13.219 0.8125 4.3594-1.3281 8.0938-4.1836 10.516-8.043z"/>
  <path d="m922.95 922.95c32.691-32.691 51.059-77.035 51.059-123.27s-18.367-90.574-51.059-123.27c-32.695-32.695-77.035-51.062-123.27-51.062s-90.574 18.367-123.27 51.062c-32.691 32.691-51.059 77.031-51.059 123.27s18.367 90.578 51.059 123.27c21.637 21.637 48.59 37.199 78.148 45.121 29.559 7.918 60.684 7.918 90.242 0 29.559-7.9219 56.512-23.484 78.148-45.121zm-242.48-110.88c-4.25-4.25-6.6328-10.016-6.6328-16.027 0-6.0078 2.3906-11.773 6.6406-16.02 4.25-4.25 10.012-6.6367 16.023-6.6367 6.0117 0 11.773 2.3867 16.023 6.6367 4.25 4.2461 6.6406 10.012 6.6406 16.02 0 6.0117-2.3828 11.777-6.6328 16.027-4.25 4.2539-10.02 6.6445-16.031 6.6445-6.0117 0-11.781-2.3906-16.031-6.6445zm92.016 104.77c-35.156-12.117-56.977-38.133-66.281-51.562-3.2344-4.6484-2.5039-10.98 1.7109-14.766l14.883-13.359c3.0625-2.7812 7.3594-3.7422 11.312-2.5273 3.9531 1.2109 6.9766 4.4141 7.9531 8.4336 5.9062 26.039 23.438 47.484 38.039 61.57 2.4375 2.4297 2.875 6.2188 1.0547 9.1406-1.8203 2.918-5.418 4.1914-8.6719 3.0703z"/>
 </g>
</svg>

<?xml version="1.0" encoding="UTF-8" standalone="no"?>
<!DOCTYPE svg PUBLIC "-//W3C//DTD SVG 1.1//EN" "http://www.w3.org/Graphics/SVG/1.1/DTD/svg11.dtd">
<svg width="100%" height="100%" viewBox="0 0 512 512" version="1.1" xmlns="http://www.w3.org/2000/svg" xmlns:xlink="http://www.w3.org/1999/xlink" xml:space="preserve" xmlns:serif="http://www.serif.com/" style="fill-rule:evenodd;clip-rule:evenodd;stroke-linejoin:round;stroke-miterlimit:2;">
    <g transform="matrix(1,0,0,1,-60.4291,-60.4496)">
        <g transform="matrix(0.474403,0,0,0.474403,31.7613,31.7721)">
            <path d="M206.25,815.95C215.371,818.622 225.191,817.388 233.371,812.544C241.551,807.704 247.351,799.685 249.398,790.403C291.586,601.963 456.348,456.443 456.348,456.443C456.348,456.443 601.868,291.743 790.308,249.493C799.628,247.473 807.687,241.665 812.554,233.462C817.417,225.255 818.648,215.4 815.949,206.251C800.151,153.423 753.722,65.371 621.419,90.091C621.419,90.091 460.009,124.825 292.448,292.361C124.888,459.897 90.178,621.331 90.178,621.331C65.451,753.731 153.506,800.161 206.238,815.951L206.25,815.95Z" style="fill:white;fill-rule:nonzero;"/>
            <path d="M98.438,962.34C180.188,1102.96 347.178,1168.07 504.798,1128.07C564.306,1112.95 620.838,1087.62 671.418,1059.02C684.262,1052.18 696.613,1044.84 707.348,1038.12C711.227,1035.69 714.094,1031.93 715.418,1027.56C716.742,1023.18 716.438,1018.47 714.559,1014.29C712.676,1010.12 709.352,1006.77 705.192,1004.86C686.723,996.352 656.254,977.343 635.161,952.453C561.099,865.734 571.223,787.803 583.458,739.453C586.669,726.844 570.661,718.148 561.989,727.851C533.419,759.843 523.13,799.523 519.591,828.191C518.118,840.699 513.251,852.562 505.525,862.507C497.794,872.449 487.498,880.089 475.74,884.605C294.8,952.902 151.88,884.863 89.56,844.621C85.427,841.875 80.376,840.875 75.509,841.848C70.645,842.817 66.36,845.68 63.599,849.801C60.841,853.922 59.825,858.973 60.778,863.84C67.728,898.555 80.458,931.852 98.442,962.348L98.438,962.34Z" style="fill:white;fill-rule:nonzero;"/>
            <path d="M1038.1,707.23C1044.83,696.496 1052.16,684.144 1059.01,671.3C1087.6,620.722 1112.91,564.19 1128.05,504.68C1168.06,347.06 1102.88,180.07 962.323,98.44C931.846,80.471 898.573,67.749 863.885,60.799C859.018,59.846 853.967,60.862 849.846,63.619C845.725,66.381 842.862,70.666 841.893,75.529C840.92,80.397 841.92,85.447 844.666,89.58C884.908,151.9 952.946,294.82 884.65,475.76C880.135,487.518 872.494,497.815 862.552,505.545C852.607,513.272 840.743,518.139 828.236,519.611C799.572,523.15 759.892,533.439 727.896,562.009C718.193,570.681 726.889,586.689 739.498,583.478C787.85,571.244 865.848,561.119 952.498,635.181C977.295,656.275 996.396,686.861 1004.9,705.189C1006.84,709.318 1010.19,712.607 1014.36,714.459C1018.52,716.314 1023.21,716.599 1027.58,715.271C1031.94,713.943 1035.67,711.088 1038.09,707.228L1038.1,707.23Z" style="fill:white;fill-rule:nonzero;"/>
            <path d="M922.95,922.95C955.641,890.259 974.009,845.915 974.009,799.68C974.009,753.445 955.642,709.106 922.95,676.41C890.255,643.715 845.915,625.348 799.68,625.348C753.445,625.348 709.106,643.715 676.41,676.41C643.719,709.101 625.351,753.441 625.351,799.68C625.351,845.919 643.718,890.258 676.41,922.95C698.047,944.587 725,960.149 754.558,968.071C784.117,975.989 815.242,975.989 844.8,968.071C874.359,960.149 901.312,944.587 922.948,922.95L922.95,922.95ZM680.47,812.07C676.22,807.82 673.837,802.054 673.837,796.043C673.837,790.035 676.228,784.27 680.478,780.023C684.728,775.773 690.49,773.386 696.501,773.386C702.513,773.386 708.274,775.773 712.524,780.023C716.774,784.269 719.164,790.035 719.164,796.043C719.164,802.055 716.782,807.82 712.532,812.07C708.282,816.324 702.512,818.715 696.501,818.715C690.489,818.715 684.72,816.324 680.47,812.07L680.47,812.07ZM772.486,916.84C737.33,904.723 715.509,878.707 706.205,865.278C702.971,860.63 703.701,854.298 707.916,850.512L722.799,837.153C725.861,834.372 730.158,833.411 734.111,834.626C738.064,835.837 741.088,839.04 742.064,843.059C747.97,869.098 765.502,890.543 780.103,904.629C782.54,907.059 782.978,910.848 781.158,913.77C779.337,916.688 775.74,917.961 772.486,916.84L772.486,916.84Z" style="fill:white;fill-rule:nonzero;"/>
        </g>
    </g>
</svg>
